X: 1
T:Dan Collins' Father's Jig
T:Bill Collins' Jig
R:jig
D:De Danann: Song for Ireland
D:Jerry Holland: The Fiddlesticks Collection
Z:id:hn-jig-81
M:6/8
K:D
A \
| dAA BAB | def a2f | aba fge | dBB gfe | dAA BAB | def a2f | aba faf | edc d2 :|
|: e \
| faa fab | afe fef | ~a3 fge | dBB gfe | dAA BAB | def a2f | aba faf | edc d2 :|
